X: 36721
T: Sheep In The Boat, The
R: jig
M: 6/8
K: Edorian
|:BEF ~G3|FED def|edB BAF|AFE FED|
BEF ~G3|FED def|edB BAF|AFE E3:|
|:~B2e ede|fef ~d2f|edB BAF|AFE FED|
[1 ~B2e ede|fef ~d2f|edB BAF|AFE EFA:|
[2 BEF ~G3|FED def|edB BAF|AFE E3||

